X: 100
T: Little House Around the Corner, The
C: Trad.
O: Cape Breton
S: Ashely MacIsaak Close to the Floor
Z: transcribed by J. Rooney
R: jig
M: 6/8
L: 1/8
Z: Contributed 20010620142239 by Jeff Rooney jeffr@alcatel.com
K: D
|:FDA, DFB|AFD EDB,|A,DF Adf|{a}gfg eag|
{g}fdB AFD|EDB, A,DF|dcd eag|1 fdd d3 :|2 fdd dfg||
|:afa geg| fdf ecA|dcd e^de|fdf efg|
afa geg|fdf ecA|dcB AFD|1 DED Dfg :|2 DED {E}D3||
